tools/download-figma-icons/icons/outlined-large/socket.svg

<svg width="64" height="64" viewBox="0 0 64 64" fill="none" xmlns="http://www.w3.org/2000/svg"><path fill-rule="evenodd" clip-rule="evenodd" d="M56.5 61c2.481 0 4.5-2.019 4.5-4.5v-49C61 5.019 58.981 3 56.5 3h-49A4.505 4.505 0 0 0 3 7.5v49C3 58.981 5.019 61 7.5 61h49ZM7.5 0h49C60.636 0 64 3.364 64 7.5v49c0 4.136-3.364 7.5-7.5 7.5h-49C3.364 64 0 60.636 0 56.5v-49C0 3.364 3.364 0 7.5 0ZM12 32c0-11.028 8.972-20 20-20s20 8.972 20 20-8.972 20-20 20a1.5 1.5 0 0 1-1.5-1.5v-5a1.5 1.5 0 0 1 3 0v3.424C42.173 48.161 49 40.868 49 32s-6.827-16.161-15.5-16.924V18.5a1.5 1.5 0 0 1-3 0v-3.424C21.827 15.839 15 23.132 15 32c0 7.232 4.618 13.696 11.492 16.083a1.501 1.501 0 0 1-.984 2.834C17.429 48.111 12 40.509 12 32Zm27-2c-1.103 0-2 .897-2 2s.897 2 2 2 2-.897 2-2-.897-2-2-2Zm0-3c2.757 0 5 2.243 5 5s-2.243 5-5 5-5-2.243-5-5 2.243-5 5-5Zm-14 7c-1.103 0-2-.897-2-2s.897-2 2-2 2 .897 2 2-.897 2-2 2Zm0-7c-2.757 0-5 2.243-5 5s2.243 5 5 5 5-2.243 5-5-2.243-5-5-5Z" fill="currentColor"/></svg>

<svg width="64" height="64" viewBox="0 0 64 64" fill="none" xmlns="http://www.w3.org/2000/svg">
<path fill-rule="evenodd" clip-rule="evenodd" d="M56.5 61C58.981 61 61 58.981 61 56.5V7.5C61 5.019 58.981 3 56.5 3H7.5C5.019 3 3 5.019 3 7.5V56.5C3 58.981 5.019 61 7.5 61H56.5ZM7.5 0H56.5C60.636 0 64 3.364 64 7.5V56.5C64 60.636 60.636 64 56.5 64H7.5C3.364 64 0 60.636 0 56.5V7.5C0 3.364 3.364 0 7.5 0ZM12 32C12 20.972 20.972 12 32 12C43.028 12 52 20.972 52 32C52 43.028 43.028 52 32 52C31.172 52 30.5 51.328 30.5 50.5V45.5C30.5 44.672 31.172 44 32 44C32.828 44 33.5 44.672 33.5 45.5V48.924C42.173 48.161 49 40.868 49 32C49 23.132 42.173 15.839 33.5 15.076V18.5C33.5 19.328 32.828 20 32 20C31.172 20 30.5 19.328 30.5 18.5V15.076C21.827 15.839 15 23.132 15 32C15 39.232 19.618 45.696 26.492 48.083C27.274 48.354 27.688 49.21 27.417 49.992C27.146 50.774 26.29 51.188 25.508 50.917C17.429 48.111 12 40.509 12 32ZM39 30C37.897 30 37 30.897 37 32C37 33.103 37.897 34 39 34C40.103 34 41 33.103 41 32C41 30.897 40.103 30 39 30ZM39 27C41.757 27 44 29.243 44 32C44 34.757 41.757 37 39 37C36.243 37 34 34.757 34 32C34 29.243 36.243 27 39 27ZM25 34C23.897 34 23 33.103 23 32C23 30.897 23.897 30 25 30C26.103 30 27 30.897 27 32C27 33.103 26.103 34 25 34ZM25 27C22.243 27 20 29.243 20 32C20 34.757 22.243 37 25 37C27.757 37 30 34.757 30 32C30 29.243 27.757 27 25 27Z" fill="black"/>
</svg>
